svg/fluentui-system-icons/ic_fluent_video_32_regular.svg

<svg width="32" height="32" viewBox="0 0 32 32" fill="none" xmlns="http://www.w3.org/2000/svg">
<path d="M6.5 5.5C4.01472 5.5 2 7.51472 2 10V22C2 24.4853 4.01472 26.5 6.5 26.5H18.5C20.9853 26.5 23 24.4853 23 22V20.5L27.1997 23.6498C28.3534 24.515 29.9997 23.6919 29.9997 22.2498V9.74985C29.9997 8.30774 28.3533 7.48458 27.1997 8.34989L23 11.4999V10C23 7.51472 20.9853 5.5 18.5 5.5H6.5ZM23 14L27.9997 10.2499V21.7498L23 18V14ZM21 10V22C21 23.3807 19.8807 24.5 18.5 24.5H6.5C5.11929 24.5 4 23.3807 4 22V10C4 8.61929 5.11929 7.5 6.5 7.5H18.5C19.8807 7.5 21 8.61929 21 10Z" fill="#212121"/>
</svg>

<svg xmlns="http://www.w3.org/2000/svg" width="32" height="32"><path d="M6.5 5.5A4.5 4.5 0 0 0 2 10v12a4.5 4.5 0 0 0 4.5 4.5h12A4.5 4.5 0 0 0 23 22v-1.5l4.2 3.15c1.153.865 2.8.042 2.8-1.4V9.75c0-1.442-1.647-2.265-2.8-1.4L23 11.5V10a4.5 4.5 0 0 0-4.5-4.5h-12ZM23 14l5-3.75v11.5L23 18v-4Zm-2-4v12a2.5 2.5 0 0 1-2.5 2.5h-12A2.5 2.5 0 0 1 4 22V10a2.5 2.5 0 0 1 2.5-2.5h12A2.5 2.5 0 0 1 21 10Z"/></svg>
